assets/img/braze_icons/message-heart-square.svg

<svg fill="none" height="24" viewBox="0 0 24 24" width="24" xmlns="http://www.w3.org/2000/svg"><path clip-rule="evenodd" d="m16.2414 2h-8.4826c-.80497-.00001-1.46934-.00002-2.01053.04419-.5621.04593-1.0788.14449-1.56414.39179-.75264.38349-1.36457.99541-1.74806 1.74806-.24729.48533-.34585 1.00204-.39178 1.56414-.04422.54119-.04421 1.20555-.04419 2.01052l-.00005 6.3789c-.00043.7954-.00075 1.386.13634 1.8977.36987 1.3803 1.44806 2.4585 2.82843 2.8284.30747.0824.64347.1152 1.03528.1281l-.00001 1.3792c-.00004.2352-.00009.475.01776.6715.01707.188.06227.5427.30993.853.28498.357.71712.5647 1.17394.5642.39698-.0004.70222-.1867.85965-.2908.1646-.1089.35183-.2587.53551-.4057l2.41312-1.9305c.5186-.4149.6726-.532.8325-.6137.1605-.082.3313-.1419.5079-.1782.1759-.0361.3693-.0408 1.0334-.0408h2.5576c.805 0 1.4693 0 2.0105-.0442.5621-.0459 1.0788-.1445 1.5642-.3918.7526-.3835 1.3645-.9954 1.748-1.748.2473-.4854.3459-1.0021.3918-1.5642.0442-.5412.0442-1.2055.0442-2.0105v-5.48262c0-.80496 0-1.46932-.0442-2.0105-.0459-.5621-.1445-1.07881-.3918-1.56414-.3835-.75265-.9954-1.36457-1.748-1.74806-.4854-.2473-1.0021-.34586-1.5642-.39179-.5412-.04421-1.2055-.0442-2.0105-.04419zm-7.77179 5.33223c1.12728-.95128 2.62759-.67183 3.52729.36702.8997-1.03885 2.3807-1.30829 3.5273-.36702 1.1467.94127 1.286 2.54176.4007 3.66687-.5484.697-1.925 1.97-2.893 2.8379-.3556.3187-.5334.4781-.7468.5423-.183.0551-.3933.0551-.5764 0-.2134-.0642-.3911-.2236-.7467-.5423-.96811-.8679-2.34467-2.1409-2.89311-2.8379-.88525-1.12511-.72655-2.7156.40072-3.66687z" fill="#801ed7" fill-rule="evenodd"/></svg>

<svg width="24" height="24" viewBox="0 0 24 24" fill="none" xmlns="http://www.w3.org/2000/svg">
<path fill-rule="evenodd" clip-rule="evenodd" d="M16.2414 2H7.7588C6.95383 1.99999 6.28946 1.99998 5.74827 2.04419C5.18617 2.09012 4.66947 2.18868 4.18413 2.43598C3.43149 2.81947 2.81956 3.43139 2.43607 4.18404C2.18878 4.66937 2.09022 5.18608 2.04429 5.74818C2.00007 6.28937 2.00008 6.95373 2.0001 7.7587L2.00005 14.1376C1.99962 14.933 1.9993 15.5236 2.13639 16.0353C2.50626 17.4156 3.58445 18.4938 4.96482 18.8637C5.27229 18.9461 5.60829 18.9789 6.0001 18.9918L6.00009 20.371C6.00005 20.6062 6 20.846 6.01785 21.0425C6.03492 21.2305 6.08012 21.5852 6.32778 21.8955C6.61276 22.2525 7.0449 22.4602 7.50172 22.4597C7.8987 22.4593 8.20394 22.273 8.36137 22.1689C8.52597 22.06 8.7132 21.9102 8.89688 21.7632L11.31 19.8327C11.8286 19.4178 11.9826 19.3007 12.1425 19.219C12.303 19.137 12.4738 19.0771 12.6504 19.0408C12.8263 19.0047 13.0197 19 13.6838 19H16.2414C17.0464 19 17.7107 19 18.2519 18.9558C18.814 18.9099 19.3307 18.8113 19.8161 18.564C20.5687 18.1805 21.1806 17.5686 21.5641 16.816C21.8114 16.3306 21.91 15.8139 21.9559 15.2518C22.0001 14.7106 22.0001 14.0463 22.0001 13.2413V7.75868C22.0001 6.95372 22.0001 6.28936 21.9559 5.74818C21.91 5.18608 21.8114 4.66937 21.5641 4.18404C21.1806 3.43139 20.5687 2.81947 19.8161 2.43598C19.3307 2.18868 18.814 2.09012 18.2519 2.04419C17.7107 1.99998 17.0464 1.99999 16.2414 2ZM8.46961 7.33223C9.59689 6.38095 11.0972 6.6604 11.9969 7.69925C12.8966 6.6604 14.3776 6.39096 15.5242 7.33223C16.6709 8.2735 16.8102 9.87399 15.9249 10.9991C15.3765 11.6961 13.9999 12.9691 13.0319 13.837C12.6763 14.1557 12.4985 14.3151 12.2851 14.3793C12.1021 14.4344 11.8918 14.4344 11.7087 14.3793C11.4953 14.3151 11.3176 14.1557 10.962 13.837C9.99389 12.9691 8.61733 11.6961 8.06889 10.9991C7.18364 9.87399 7.34234 8.2835 8.46961 7.33223Z" fill="#801ED7"/>
</svg>
